X: 1
T:The Wind that Shakes the Barley
M:C
L:1/8
Q:80
C:
S:Reel
K:HP
| {g}A{d}A{e}A{d}B{g}A{d}G{g}A2|
{g}B{d}B{e}BA{g}BcdB|
{g}A{d}A{e}A{d}B{g}A{d}G{g}AB|  !
{a}gf{gef}ed{g}Bc{g}dB|
{g}A{d}A{e}A{d}B{g}A{d}G{g}A2|
{g}B{d}B{e}B{d}A{g}BcdB|  !
{g}A{d}A{e}A{d}B{g}A{d}G{g}AB|
{a}gf{gef}ed{g}Bc{g}de|]
{g}f2{g}fd{gf}g2{a}ge|  !
{g}f2{g}fd{g}Bc{g}de|
{g}f2{g}fd{gf}g2{a}ge|
af{gef}ed{g}Bc{g}de|  !
{g}f2{g}fd{gf}g2{a}ge|
{g}f2{g}fd{g}Bc{g}de|
{g}fa{g}fd{g}efge|  !
gf{gef}ed{g}Bc{g}dB|]
